assets/img/icons/duotone-icons/Home/Chair#1.svg

<?xml version="1.0" encoding="UTF-8"?>
<svg width="24px" height="24px" viewBox="0 0 24 24" version="1.1" xmlns="http://www.w3.org/2000/svg" xmlns:xlink="http://www.w3.org/1999/xlink">
    <!-- Generator: Sketch 52.2 (67145) - http://www.bohemiancoding.com/sketch -->
    <title>Stockholm-icons / Home / Chair#1</title>
    <desc>Created with Sketch.</desc>
    <g id="Stockholm-icons-/-Home-/-Chair#1" stroke="none" stroke-width="1" fill="none" fill-rule="evenodd">
        <rect id="bound" x="0" y="0" width="24" height="24"></rect>
        <path d="M12,2 C13.8385982,2 15.5193947,3.03878936 16.3416408,4.68328157 L19,10 C20.365323,12.730646 19.25851,16.0510849 16.527864,17.4164079 C15.7602901,17.8001948 14.9139019,18 14.0557281,18 L9.94427191,18 C6.8913169,18 4.41640786,15.525091 4.41640786,12.472136 C4.41640786,11.6139622 4.61621302,10.767574 5,10 L7.65835921,4.68328157 C8.48060532,3.03878936 10.1614018,2 12,2 Z M7.55,13.6 C9.00633458,14.6922509 10.4936654,15.25 12,15.25 C13.5063346,15.25 14.9936654,14.6922509 16.45,13.6 L15.55,12.4 C14.3396679,13.3077491 13.1603321,13.75 12,13.75 C10.8396679,13.75 9.66033208,13.3077491 8.45,12.4 L7.55,13.6 Z" id="Combined-Shape" fill="#335EEA"></path>
        <path d="M6.15999985,21.0604779 L8.15999985,17.5963763 C8.43614222,17.1180837 9.04773263,16.9542085 9.52602525,17.2303509 C10.0043179,17.5064933 10.168193,18.1180837 9.89205065,18.5963763 L7.89205065,22.0604779 C7.61590828,22.5387706 7.00431787,22.7026457 6.52602525,22.4265033 C6.04773263,22.150361 5.88385747,21.5387706 6.15999985,21.0604779 Z M17.8320512,21.0301278 C18.1081936,21.5084204 17.9443184,22.1200108 17.4660258,22.3961532 C16.9877332,22.6722956 16.3761428,22.5084204 16.1000004,22.0301278 L14.1000004,18.5660262 C13.823858,18.0877335 13.9877332,17.4761431 14.4660258,17.2000008 C14.9443184,16.9238584 15.5559088,17.0877335 15.8320512,17.5660262 L17.8320512,21.0301278 Z" id="Combined-Shape" fill="#335EEA" opacity="0.3"></path>
    </g>
</svg>

<svg width="24" height="24" viewBox="0 0 24 24" xmlns="http://www.w3.org/2000/svg"><g fill="none" fill-rule="evenodd"><path d="M0 0h24v24H0z"/><path d="M12 2a4.854 4.854 0 014.342 2.683L19 10a5.528 5.528 0 01-4.944 8H9.944A5.528 5.528 0 015 10l2.658-5.317A4.854 4.854 0 0112 2zM7.55 13.6c1.456 1.092 2.944 1.65 4.45 1.65 1.506 0 2.994-.558 4.45-1.65l-.9-1.2c-1.21.908-2.39 1.35-3.55 1.35-1.16 0-2.34-.442-3.55-1.35l-.9 1.2z" fill="#335EEA"/><path d="M6.16 21.06l2-3.464a1 1 0 111.732 1l-2 3.464a1 1 0 11-1.732-1zm11.672-.03a1 1 0 01-1.732 1l-2-3.464a1 1 0 111.732-1l2 3.464z" fill="#335EEA" opacity=".3"/></g></svg>
